svg_80x80/nextjs.svg

<svg viewBox="0 0 80 80" xmlns="http://www.w3.org/2000/svg">
<rect width="100%" height="100%" fill="black"/>
<path d="M28.1622 20L72.81 77.5111C71.8253 78.3796 70.8062 79.2101 69.7549 80H66.3039L26.4798 28.5464V59.9833H19.75V20H28.1622Z" fill="url(#paint0_linear_30_941)"/>
<path d="M60.3053 20H53.6387V60H60.3053V20Z" fill="url(#paint1_linear_30_941)"/>
<linearGradient id="paint0_linear_30_941" x1="50.3056" y1="54.7222" x2="70.0278" y2="79.1667" gradientUnits="userSpaceOnUse">
<stop stop-color="white"/>
<stop offset="1" stop-color="white" stop-opacity="0"/>
</linearGradient>
<linearGradient id="paint1_linear_30_941" x1="56.972" y1="20" x2="56.8603" y2="49.375" gradientUnits="userSpaceOnUse">
<stop stop-color="white"/>
<stop offset="1" stop-color="white" stop-opacity="0"/>
</linearGradient>
</svg>

<svg xmlns="http://www.w3.org/2000/svg" viewBox="0 0 80 80">
  <rect width="100%" height="100%"/>
  <path fill="url(#a)" d="m28.2 20 44.6 57.5-3 2.5h-3.5L26.5 28.5V60h-6.8V20h8.5Z"/>
  <path fill="url(#b)" d="M60.3 20h-6.7v40h6.7V20Z"/>
  <linearGradient id="a" x1="50.3" x2="70" y1="54.7" y2="79.2" gradientUnits="userSpaceOnUse">
    <stop stop-color="#fff"/>
    <stop offset="1" stop-color="#fff" stop-opacity="0"/>
  </linearGradient>
  <linearGradient id="b" x1="57" x2="56.9" y1="20" y2="49.4" gradientUnits="userSpaceOnUse">
    <stop stop-color="#fff"/>
    <stop offset="1" stop-color="#fff" stop-opacity="0"/>
  </linearGradient>
</svg>
